X:038 
T:Dennis Cronin's Jig*
F:file ID: cre.4/038dennis_c
S:BPC < P. O'Keeffe < D. Cronin
B:CRE4.006: gan ainm
Q:160
L:1/8
M:6/8
R:jig
K:D
F/G/|A3 cBc|ABA d2B|A3 cBc|e2e fdB|
A3 cBc|ABA d2B|e2f g2e|age dB:|
f/g/|aed cBc|ABA d2B|aed cBc|e2e fdB|
aed cBc|ABA d2B|e2f g2e|age dB :|


